svgs/sharp-solid/align-left.svg

<svg xmlns="http://www.w3.org/2000/svg" viewBox="0 0 448 512"><!--! Font Awesome Pro 6.6.0 by @fontawesome - https://fontawesome.com License - https://fontawesome.com/license (Commercial License) Copyright 2024 Fonticons, Inc. --><path d="M288 32l0 64L0 96 0 32l288 0zm0 256l0 64L0 352l0-64 288 0zM0 160l448 0 0 64L0 224l0-64zM448 416l0 64L0 480l0-64 448 0z"/></svg>

<svg xmlns="http://www.w3.org/2000/svg" viewBox="0 0 448 512"><!--! Font Awesome Pro 6.4.2 by @fontawesome - https://fontawesome.com License - https://fontawesome.com/license (Commercial License) Copyright 2023 Fonticons, Inc. --><path d="M288 32V96H0V32H288zm0 256v64H0V288H288zM0 160H448v64H0V160zM448 416v64H0V416H448z"/></svg>
